!!!OTL: Dabuzou kuaikuaizou
!!!ARE: Asia, China,ÿJiangxi Xinfeng
!! IV, 199
!!!SCT: C1959
!!!YEM: Copyright 1995, estate of Helmut Schaffrath.
**kern
*ICvox
*Ivox
!! Mixed meters:  1/4; 2/4
*M2/4
*k[f#]
*G:
{8b
8dd
8b
16b
16dd
=1
8.ee
16dd
4ee}
=2
{8dd
16a
16b
8ee
8dd
=3
8a
16b
16dd
4a}
=4
{8a
16b
16dd
16ee
16dd
8b
=5
16a
16g
16a
16b
16dd
16b
16dd
16ee
=6
16g
16a
16ee
16dd
4b}
=7
{16a
16b
16f#
16a
4e
=8
16d
16e
16f#
16a
4e}
=9
{8dd
16a
16b
8.dd
16ee
=10
8a
16b
16dd
4a}
=11
{16a
16b
8dd
16ee
16dd
8b
=12
16a
16g
16a
16b
16dd
16b
16dd
16ee
=13
16g
16a
16ee
16dd
4b}
=14
{8f#
16f#
16a
4e
=15
16d
16e
16f#
16a
4e
=16
4dd}
==
!!!AGN: Xiaodiao, Dengge, Ludiao
!!!AMT: irregular
!!!AIN: vox
!!!EED: Helmut Schaffrath
!!!EEV: 1.0
*-
